storage/app/icons/phosphoricons/bold/mouse-right-click-bold.svg

<svg xmlns="http://www.w3.org/2000/svg" fill="currentColor" viewBox="0 0 256 256"><path d="M144 12h-32a68.07 68.07 0 0 0-68 68v96a68.07 68.07 0 0 0 68 68h32a68.07 68.07 0 0 0 68-68V80a68.07 68.07 0 0 0-68-68m42 55a43.6 43.6 0 0 1 2 13v20h-35Zm-13.49-20.48L140 79V36h4a43.83 43.83 0 0 1 28.51 10.52M112 36h4v64H68V80a44.05 44.05 0 0 1 44-44m32 184h-32a44.05 44.05 0 0 1-44-44v-52h120v52a44.05 44.05 0 0 1-44 44"/></svg>

<svg xmlns="http://www.w3.org/2000/svg" viewBox="0 0 256 256" fill="currentColor"><path d="M144,12H112A68.07,68.07,0,0,0,44,80v96a68.07,68.07,0,0,0,68,68h32a68.07,68.07,0,0,0,68-68V80A68.07,68.07,0,0,0,144,12Zm42,55a43.63,43.63,0,0,1,2,13v20H153ZM172.51,46.52,140,79V36h4A43.83,43.83,0,0,1,172.51,46.52ZM112,36h4v64H68V80A44.05,44.05,0,0,1,112,36Zm32,184H112a44.05,44.05,0,0,1-44-44V124H188v52A44.05,44.05,0,0,1,144,220Z"/></svg>
